svgs/sharp-regular/text-height.svg

<svg xmlns="http://www.w3.org/2000/svg" viewBox="0 0 576 512"><!--! Font Awesome Pro 6.6.0 by @fontawesome - https://fontawesome.com License - https://fontawesome.com/license (Commercial License) Copyright 2024 Fonticons, Inc. --><path d="M24 32L0 32 0 56l0 72 0 24 48 0 0-24 0-48 88 0 0 352-48 0-24 0 0 48 24 0 144 0 24 0 0-48-24 0-48 0 0-352 88 0 0 48 0 24 48 0 0-24 0-72 0-24-24 0L24 32zM497 50.2l-17-17-17 17L402.2 111l-17 17 33.9 33.9 17-17L456 125.1l0 261.7L436.2 367l-17-17L385.3 384l17 17L463 461.8l17 17 17-17L557.8 401l17-17-33.9-33.9-17 17L504 386.9l0-261.7L523.8 145l17 17L574.7 128l-17-17L497 50.2z"/></svg>

<svg xmlns="http://www.w3.org/2000/svg" viewBox="0 0 576 512"><!--! Font Awesome Pro 6.4.2 by @fontawesome - https://fontawesome.com License - https://fontawesome.com/license (Commercial License) Copyright 2023 Fonticons, Inc. --><path d="M24 32H0V56v72 24H48V128 80h88l0 352H88 64v48H88 232h24V432H232 184l0-352h88v48 24h48V128 56 32H296 24zM497 50.2l-17-17-17 17L402.2 111l-17 17 33.9 33.9 17-17L456 125.1V386.9L436.2 367l-17-17L385.3 384l17 17L463 461.8l17 17 17-17L557.8 401l17-17-33.9-33.9-17 17L504 386.9V125.1L523.8 145l17 17L574.7 128l-17-17L497 50.2z"/></svg>
